X:121
T:Parry’s Waltz. JJo.121
S:J.Jones MS,1801,N.Shrops.
A:N Shropshire
Z:Neil Brookes 2006
M:3/8
L:1/8
Q:3/8=60
K:C
G|ccc|c/e/g/e/c/e/|ddd|c/B/A/G/A/B/|cc^c|ddd|c/B/A/G/A/B/|c2::!
g|e/g/e/g/e/g/|f/a/f/a/f/a/|d/f/d/f/d/f/|e/g/e/g/e/g/|\
c/e/c/e/c/e/|d/f/d/f/d/f/|GAB|c2::!
c|GGc|EEc|GG/A/G/F/|E3|CCC|DDD|EGF|D2c|!
GGc|EEc|GG/A/G/F/|E2g|e/g/c’/g/e/g/|c/e/g/e/c/e/|G/B/d/B/G/B/|c2:|

